packages/foundations/assets/icons/functional/images/audio & video/fast_backward_filled.svg

<svg xmlns="http://www.w3.org/2000/svg" width="32" height="32" fill="none"><path fill="#1A1C1F" fill-rule="evenodd" d="M14.546 8.058a2.3 2.3 0 0 0-.427.162c-.124.063-2.194 1.469-4.599 3.124-4.707 3.239-4.878 3.371-5.092 3.945-.257.687-.111 1.479.37 2.005.381.417 9.098 6.421 9.561 6.585.771.273 1.588.05 2.144-.585.47-.536.478-.584.51-2.852l.027-1.984 3.867 2.666c4.124 2.844 4.177 2.876 4.8 2.876.356 0 .886-.179 1.186-.401.308-.227.53-.523.692-.925l.122-.301.015-6.101c.009-3.746-.005-6.245-.037-6.475-.13-.937-.747-1.587-1.669-1.758a2 2 0 0 0-1.216.192c-.132.07-1.932 1.294-4 2.72l-3.76 2.594-.027-1.986c-.027-1.912-.032-1.997-.15-2.29-.362-.901-1.378-1.432-2.317-1.211"/></svg>

<svg width="32" height="32" viewBox="0 0 32 32" fill="none" xmlns="http://www.w3.org/2000/svg"><path d="M14.546 8.058 C 14.435 8.084,14.243 8.157,14.119 8.220 C 13.995 8.283,11.925 9.689,9.520 11.344 C 4.813 14.583,4.642 14.715,4.428 15.289 C 4.171 15.976,4.317 16.768,4.798 17.294 C 5.179 17.711,13.896 23.715,14.359 23.879 C 15.130 24.152,15.947 23.929,16.503 23.294 C 16.973 22.758,16.981 22.710,17.013 20.442 L 17.040 18.458 20.907 21.124 C 25.031 23.968,25.084 24.000,25.707 24.000 C 26.063 24.000,26.593 23.821,26.893 23.599 C 27.201 23.372,27.423 23.076,27.585 22.674 L 27.707 22.373 27.722 16.272 C 27.731 12.526,27.717 10.027,27.685 9.797 C 27.555 8.860,26.938 8.210,26.016 8.039 C 25.638 7.968,25.155 8.045,24.800 8.231 C 24.668 8.301,22.868 9.525,20.800 10.951 L 17.040 13.545 17.013 11.559 C 16.986 9.647,16.981 9.562,16.863 9.269 C 16.501 8.368,15.485 7.837,14.546 8.058 " fill="#1A1C1F" stroke="none" fill-rule="evenodd"></path></svg>
